X:922
T:White Rose of Texas
S:Learned from Pete Coe, England
Z:Nigel Gatherer
M:4/4
L:1/4
K:G
ef g2 | ef g2 | de f/g/f/e/ | de f2 |
ef g2 | ef g2 | de f/e/ c   | d4   :|
A2 B2 | AG F2 | A2 de       | f4    |
gf e2 | fe d2 | fa f/e/ c   | d4   :|
<end>
<start>
